public/img/logo/fav.svg

<svg width="150" height="150" viewBox="0 0 150 150" fill="none" xmlns="http://www.w3.org/2000/svg">
<path d="M93.8047 9C115.896 9 133.805 26.9086 133.805 49V96.8047C133.805 99.4736 133.541 102.081 133.042 104.604C115.858 105.003 102.003 118.858 101.604 136.042C99.0809 136.541 96.4736 136.805 93.8047 136.805H46C23.9086 136.805 6 118.896 6 96.8047V49C6 26.9086 23.9086 9 46 9H93.8047Z" fill="url(#paint0_linear_91_2)"/>
<path d="M89.8009 103.155C68.9838 116.135 45.9088 105.85 38.1151 90.2481C41.6332 91.3734 45.0274 92.6881 48.5382 93.5185C52.1182 94.3634 55.8111 94.7276 59.5076 95.3103C61.0299 99.0178 61.7547 99.4985 65.972 99.4912C67.4907 99.4912 69.0093 99.5422 70.5244 99.4694C73.7547 99.3128 75.1714 97.4008 75.1204 93.3837C75.0803 90.2044 73.4415 88.4672 70.3823 88.4125C68.6232 88.3798 66.8606 88.4053 65.1015 88.4125C61.8457 88.4198 60.8005 89.1154 59.5804 92.1346C51.5173 91.6757 43.811 89.862 36.7348 85.7977C36.1303 85.4517 35.5767 84.7233 35.3472 84.0532C29.6695 67.661 37.7764 48.0166 53.4839 40.6127C67.2867 34.1082 80.5978 35.2846 92.536 44.87C103.09 53.3411 107.144 64.7621 105.461 78.1861C104.736 83.9549 102.504 89.13 99.2225 93.9045C98.8765 94.4071 98.7891 95.2884 98.9457 95.9003C100.049 100.161 102.005 103.923 105.599 106.662C105.825 106.837 106.018 107.055 106.27 107.292C101.768 108.88 95.0052 107.15 89.8009 103.159V103.155Z" fill="white"/>
<path d="M62.3057 93.8945C62.3057 92.386 63.5286 91.1631 65.0371 91.1631H70.3178C71.5247 91.1631 72.503 92.1414 72.503 93.3482V93.3482C72.503 95.1585 71.0355 96.6259 69.2253 96.6259H65.0371C63.5286 96.6259 62.3057 95.403 62.3057 93.8945V93.8945Z" fill="white"/>
<path d="M124.024 140.448C123.723 141.373 122.861 142 121.888 142V142C120.345 142 119.262 140.481 119.765 139.022L125.087 123.585C125.647 121.959 127.178 120.867 128.898 120.867V120.867C130.618 120.867 132.149 121.96 132.709 123.586L138.023 139.023C138.525 140.481 137.442 142 135.9 142V142C134.926 142 134.063 141.373 133.763 140.447L129.006 125.775C128.991 125.728 128.947 125.697 128.898 125.697V125.697C128.849 125.697 128.806 125.728 128.79 125.775L124.024 140.448ZM123.221 135.437C123.221 134.474 124.001 133.693 124.964 133.693H132.77C133.733 133.693 134.514 134.474 134.514 135.437V135.437C134.514 136.4 133.733 137.181 132.77 137.181H124.964C124.001 137.181 123.221 136.4 123.221 135.437V135.437Z" fill="url(#paint1_linear_91_2)"/>
<path d="M142.335 142C141.122 142 140.14 141.017 140.14 139.805V128.345C140.14 127.133 141.122 126.151 142.335 126.151V126.151C143.547 126.151 144.529 127.133 144.529 128.345V139.805C144.529 141.017 143.547 142 142.335 142V142ZM142.345 124.107C141.692 124.107 141.132 123.891 140.665 123.457C140.205 123.017 139.975 122.491 139.975 121.879C139.975 121.273 140.205 120.754 140.665 120.321C141.132 119.88 141.692 119.66 142.345 119.66C142.997 119.66 143.554 119.88 144.014 120.321C144.481 120.754 144.715 121.273 144.715 121.879C144.715 122.491 144.481 123.017 144.014 123.457C143.554 123.891 142.997 124.107 142.345 124.107Z" fill="url(#paint2_linear_91_2)"/>
<defs>
<linearGradient id="paint0_linear_91_2" x1="6.18696" y1="136.805" x2="133.991" y2="9.37444" gradientUnits="userSpaceOnUse">
<stop stop-color="#4800FF"/>
<stop offset="1" stop-color="#703BF7"/>
</linearGradient>
<linearGradient id="paint1_linear_91_2" x1="118.044" y1="148.538" x2="152.143" y2="120.951" gradientUnits="userSpaceOnUse">
<stop stop-color="#4800FF"/>
<stop offset="1" stop-color="#703BF7"/>
</linearGradient>
<linearGradient id="paint2_linear_91_2" x1="118.044" y1="148.538" x2="152.143" y2="120.951" gradientUnits="userSpaceOnUse">
<stop stop-color="#4800FF"/>
<stop offset="1" stop-color="#703BF7"/>
</linearGradient>
</defs>
</svg>

<svg xmlns="http://www.w3.org/2000/svg" width="150" height="150" fill="none"><path fill="url(#a)" d="M93.805 9c22.091 0 40 17.909 40 40v47.805c0 2.669-.264 5.276-.763 7.799-17.184.399-31.039 14.254-31.438 31.438-2.523.499-5.13.763-7.8.763H46c-22.091 0-40-17.909-40-40V49C6 26.909 23.909 9 46 9z"/><path fill="#fff" d="M89.8 103.155c-20.816 12.98-43.891 2.695-51.685-12.907 3.518 1.125 6.912 2.44 10.423 3.27 3.58.845 7.273 1.21 10.97 1.792 1.522 3.708 2.247 4.189 6.464 4.181 1.519 0 3.037.051 4.552-.022 3.23-.156 4.647-2.068 4.596-6.085-.04-3.18-1.678-4.917-4.738-4.972-1.759-.032-3.521-.007-5.28 0-3.256.008-4.302.703-5.522 3.723-8.063-.46-15.769-2.273-22.845-6.337-.605-.346-1.158-1.075-1.388-1.745-5.678-16.392 2.43-36.036 18.137-43.44 13.803-6.505 27.114-5.328 39.052 4.257 10.554 8.471 14.608 19.892 12.925 33.316-.725 5.769-2.957 10.944-6.239 15.718-.346.503-.433 1.384-.276 1.996 1.103 4.261 3.059 8.023 6.653 10.762.226.175.419.393.671.63-4.502 1.588-11.265-.142-16.47-4.133z"/><path fill="#fff" d="M62.306 93.895a2.73 2.73 0 0 1 2.731-2.732h5.28c1.208 0 2.186.978 2.186 2.185a3.28 3.28 0 0 1-3.278 3.278h-4.188a2.73 2.73 0 0 1-2.731-2.732"/><path fill="url(#b)" d="M124.024 140.448a2.245 2.245 0 1 1-4.259-1.426l5.322-15.437a4.032 4.032 0 0 1 7.622.001l5.314 15.437a2.246 2.246 0 1 1-4.26 1.424l-4.757-14.672a.114.114 0 0 0-.216 0zm-.803-5.011c0-.963.78-1.744 1.743-1.744h7.806a1.744 1.744 0 0 1 0 3.488h-7.806a1.743 1.743 0 0 1-1.743-1.744"/><path fill="url(#c)" d="M142.335 142a2.195 2.195 0 0 1-2.195-2.195v-11.46a2.194 2.194 0 1 1 4.389 0v11.46a2.194 2.194 0 0 1-2.194 2.195m.01-17.893a2.38 2.38 0 0 1-1.68-.65q-.69-.66-.69-1.578 0-.909.69-1.558a2.36 2.36 0 0 1 1.68-.661q.978 0 1.669.661.7.65.701 1.558 0 .918-.701 1.578-.69.65-1.669.65"/><defs><linearGradient id="a" x1="6.187" x2="133.991" y1="136.805" y2="9.374" gradientUnits="userSpaceOnUse"><stop stop-color="#4800ff"/><stop offset="1" stop-color="#703bf7"/></linearGradient><linearGradient id="b" x1="118.044" x2="152.143" y1="148.538" y2="120.951" gradientUnits="userSpaceOnUse"><stop stop-color="#4800ff"/><stop offset="1" stop-color="#703bf7"/></linearGradient><linearGradient id="c" x1="118.044" x2="152.143" y1="148.538" y2="120.951" gradientUnits="userSpaceOnUse"><stop stop-color="#4800ff"/><stop offset="1" stop-color="#703bf7"/></linearGradient></defs></svg>
